X: 22791
T: Lanigan's Ball
R: jig
M: 6/8
K: Eminor
D|:EDE G2A|B2A B^cd|DED F2G|ABA AFD|
EDE G2A|B2A B^cd|eBB cBA|1 GFE E2D:|2 GFE E2f||
|:e2f gfe|fag fed|e2f gfe|fBB B3|
e2f gfe|fag fed|eBB cBA|1 GFE E2f:|2 GFE E2D||

